X:1
T:Title
%%score { 1 | 2 } 3
L:1/8
Q:1/4=180
M:4/4
K:G
V:1 bass nm="Grand Piano, Track 1"
V:2 treble 
V:3 bass nm="Grand Piano, Track 3"
V:1
 B,4 G,2 E,2 | G,4 A,3 G, | F,2 F,2 E,4 | A,4 B,2[K:treble] D2 | E4 F E3 | D2 A,2 B,4 | E4 D2 E2 | %7
 B,4 G,4 | D2 B,2 A,4 | B,4 G,2 E,2 | G,4 A,3 G, | F,2 F,2 E,4 | E4 D2 E2 | B,4 G,4 | %14
 D2[K:bass] B,2 A,4 | B,4 G,2 E,2 | G,4 A,3 G, | F,2 F,2 E,4- | E,4 z4 |] %19
V:2
 B4 G2 G2 | B4 d4 | B2 B2 B4 | d4 B2 A2 | G4 B4 | B2 d2 e4 | B4 d2 B2 | e4 B4 | A2 B2 d4 | %9
 B4 B2 B2 | e4 d4 | B2 B2 B4 | B4 d2 B2 | e4 B4 | A2 B2 d4 | B4 B2 B2 | e4 d4 | B2 B2 B4- | %18
 B4 z4 |] %19
V:3
 E,4 B,,2 E,2 | E,4 D,4 | B,,2 B,,2 E,4 | D,4 E,2 D,2 | G,4 E,4 | D,2 D,2 E,4 | E,4 B,2 B,2 | %7
 G,4 B,4 | A,2 G,2 D,4 | E,4 E,2 G,2 | E,4 D,4 | B,,2 B,,2 E,4 | E,4 B,2 B,2 | G,4 B,4 | %14
 A,2 G,2 D,4 | E,4 E,2 G,2 | E,4 D,4 | B,,2 B,,2 E,4- | E,4 z4 |] %19

